flaticon/interaction/database-4.svg

<svg xmlns="http://www.w3.org/2000/svg" width="32" height="32" viewBox="0 0 24 24">
    <path d="M 23.453125 22.582031 L 18.464844 14.035156 C 18.292969 13.742188 17.992188 13.566406 17.652344 13.566406 C 17.3125 13.566406 17.007812 13.742188 16.839844 14.035156 L 11.851562 22.582031 C 11.679688 22.878906 11.675781 23.230469 11.847656 23.527344 C 12.019531 23.824219 12.324219 24 12.664062 24 L 22.636719 24 C 22.980469 24 23.285156 23.824219 23.457031 23.527344 C 23.625 23.230469 23.625 22.878906 23.453125 22.582031 Z M 22.726562 23.109375 C 22.710938 23.128906 22.6875 23.15625 22.640625 23.15625 L 12.664062 23.15625 C 12.617188 23.15625 12.589844 23.132812 12.578125 23.109375 C 12.566406 23.085938 12.554688 23.050781 12.578125 23.007812 L 17.566406 14.457031 C 17.589844 14.417969 17.625 14.410156 17.652344 14.410156 C 17.675781 14.410156 17.714844 14.417969 17.738281 14.457031 L 22.726562 23.007812 C 22.75 23.046875 22.738281 23.085938 22.726562 23.109375 Z M 22.726562 23.109375"/>
    <path d="M17.6875 16.421875C17.453125 16.421875 17.265625 16.609375 17.265625 16.84375L17.265625 20.210938C17.265625 20.445312 17.453125 20.632812 17.6875 20.632812 17.917969 20.632812 18.109375 20.445312 18.109375 20.210938L18.109375 16.84375C18.109375 16.609375 17.921875 16.421875 17.6875 16.421875zM17.390625 21.597656C17.308594 21.675781 17.265625 21.785156 17.265625 21.898438 17.265625 22.007812 17.308594 22.113281 17.390625 22.191406 17.46875 22.273438 17.578125 22.320312 17.6875 22.320312 17.796875 22.320312 17.90625 22.273438 17.988281 22.191406 18.0625 22.113281 18.109375 22.007812 18.109375 21.898438 18.109375 21.785156 18.0625 21.675781 17.988281 21.597656 17.828125 21.4375 17.542969 21.4375 17.390625 21.597656zM17.390625 21.597656"/>
    <path d="M 10.941406 17.261719 C 10.59375 17.261719 10.253906 17.253906 9.917969 17.242188 C 9.714844 17.234375 9.519531 17.222656 9.324219 17.210938 C 9.195312 17.203125 9.070312 17.199219 8.945312 17.191406 C 8.683594 17.171875 8.425781 17.148438 8.175781 17.121094 C 8.125 17.117188 8.070312 17.113281 8.023438 17.105469 C 7.734375 17.074219 7.453125 17.039062 7.175781 17 C 7.167969 16.996094 7.15625 16.996094 7.148438 16.996094 C 5.726562 16.785156 4.503906 16.464844 3.546875 16.082031 C 3.542969 16.082031 3.535156 16.078125 3.527344 16.074219 C 3.351562 16.003906 3.1875 15.933594 3.03125 15.859375 C 3.011719 15.851562 2.992188 15.839844 2.972656 15.832031 C 2.832031 15.761719 2.703125 15.695312 2.578125 15.625 C 2.546875 15.605469 2.515625 15.589844 2.484375 15.570312 C 2.378906 15.507812 2.277344 15.445312 2.183594 15.378906 C 2.148438 15.351562 2.109375 15.328125 2.074219 15.300781 C 1.996094 15.242188 1.921875 15.183594 1.855469 15.125 C 1.816406 15.089844 1.777344 15.054688 1.742188 15.023438 C 1.6875 14.96875 1.636719 14.914062 1.59375 14.859375 C 1.558594 14.820312 1.527344 14.78125 1.496094 14.742188 C 1.460938 14.691406 1.429688 14.636719 1.402344 14.585938 C 1.378906 14.546875 1.359375 14.503906 1.339844 14.460938 C 1.320312 14.410156 1.304688 14.359375 1.292969 14.308594 C 1.277344 14.242188 1.257812 14.171875 1.257812 14.105469 L 1.257812 10.648438 C 1.265625 10.65625 1.277344 10.664062 1.285156 10.667969 C 1.382812 10.757812 1.480469 10.839844 1.59375 10.925781 C 3.183594 12.121094 6.351562 13.050781 10.941406 13.050781 C 15.519531 13.050781 18.683594 12.125 20.277344 10.933594 C 20.402344 10.84375 20.515625 10.746094 20.625 10.652344 C 20.625 10.652344 20.625 10.648438 20.625 10.648438 L 20.625 14.316406 C 20.625 14.546875 20.816406 14.734375 21.046875 14.734375 C 21.28125 14.734375 21.46875 14.546875 21.46875 14.316406 L 21.46875 3.789062 C 21.46875 3.710938 21.441406 3.644531 21.40625 3.582031 C 20.917969 1.777344 17.289062 0 10.941406 0 C 4.59375 0 0.964844 1.777344 0.480469 3.582031 C 0.441406 3.644531 0.417969 3.710938 0.417969 3.789062 L 0.417969 19.367188 C 0.417969 19.433594 0.433594 19.5 0.464844 19.554688 C 0.945312 21.589844 4.96875 22.789062 8.804688 23.078125 C 8.816406 23.078125 8.828125 23.078125 8.839844 23.078125 C 9.058594 23.078125 9.242188 22.910156 9.257812 22.6875 C 9.277344 22.457031 9.101562 22.253906 8.871094 22.238281 C 4.191406 21.886719 1.464844 20.460938 1.273438 19.300781 C 1.269531 19.28125 1.265625 19.261719 1.257812 19.242188 L 1.257812 15.703125 C 1.265625 15.707031 1.277344 15.714844 1.285156 15.722656 C 1.382812 15.808594 1.480469 15.894531 1.59375 15.976562 C 3.183594 17.175781 6.351562 18.105469 10.941406 18.105469 C 11.175781 18.105469 11.363281 17.914062 11.363281 17.683594 C 11.363281 17.449219 11.175781 17.261719 10.941406 17.261719 Z M 1.511719 5.808594 C 1.640625 5.910156 1.777344 6.007812 1.921875 6.101562 C 1.953125 6.121094 1.988281 6.140625 2.019531 6.160156 C 2.144531 6.238281 2.273438 6.3125 2.414062 6.386719 C 2.464844 6.414062 2.515625 6.441406 2.566406 6.46875 C 2.722656 6.546875 2.882812 6.621094 3.050781 6.695312 C 3.078125 6.710938 3.105469 6.722656 3.132812 6.734375 C 3.332031 6.816406 3.539062 6.898438 3.757812 6.972656 C 3.820312 6.996094 3.882812 7.015625 3.945312 7.035156 C 4.117188 7.09375 4.296875 7.152344 4.480469 7.207031 C 4.550781 7.226562 4.613281 7.246094 4.683594 7.265625 C 4.929688 7.332031 5.183594 7.398438 5.449219 7.457031 C 5.488281 7.464844 5.527344 7.472656 5.5625 7.480469 C 5.800781 7.53125 6.042969 7.578125 6.292969 7.625 C 6.378906 7.640625 6.464844 7.652344 6.554688 7.667969 C 6.792969 7.707031 7.039062 7.742188 7.289062 7.777344 C 7.355469 7.785156 7.417969 7.792969 7.480469 7.800781 C 7.796875 7.839844 8.121094 7.871094 8.453125 7.898438 C 8.535156 7.90625 8.621094 7.910156 8.703125 7.917969 C 8.96875 7.9375 9.242188 7.953125 9.519531 7.964844 C 9.621094 7.96875 9.722656 7.976562 9.828125 7.976562 C 10.191406 7.992188 10.558594 8 10.941406 8 C 11.324219 8 11.695312 7.992188 12.058594 7.976562 C 12.160156 7.976562 12.261719 7.96875 12.363281 7.964844 C 12.644531 7.953125 12.914062 7.9375 13.183594 7.917969 C 13.265625 7.910156 13.351562 7.90625 13.433594 7.898438 C 13.765625 7.871094 14.089844 7.839844 14.402344 7.800781 C 14.46875 7.792969 14.53125 7.785156 14.597656 7.777344 C 14.847656 7.742188 15.09375 7.707031 15.332031 7.667969 C 15.417969 7.652344 15.503906 7.640625 15.589844 7.625 C 15.84375 7.578125 16.085938 7.53125 16.320312 7.480469 C 16.359375 7.472656 16.398438 7.464844 16.433594 7.457031 C 16.703125 7.398438 16.957031 7.332031 17.203125 7.265625 C 17.269531 7.246094 17.335938 7.226562 17.402344 7.207031 C 17.589844 7.152344 17.769531 7.09375 17.941406 7.035156 C 18.003906 7.015625 18.066406 6.996094 18.128906 6.972656 C 18.34375 6.898438 18.554688 6.816406 18.753906 6.734375 C 18.78125 6.722656 18.804688 6.707031 18.832031 6.695312 C 19.003906 6.621094 19.164062 6.546875 19.316406 6.46875 C 19.371094 6.441406 19.421875 6.414062 19.472656 6.386719 C 19.609375 6.3125 19.742188 6.238281 19.863281 6.160156 C 19.898438 6.140625 19.933594 6.121094 19.960938 6.101562 C 20.109375 6.007812 20.246094 5.910156 20.371094 5.808594 C 20.40625 5.785156 20.433594 5.757812 20.464844 5.734375 C 20.519531 5.6875 20.574219 5.640625 20.625 5.597656 L 20.625 9.050781 C 20.625 9.121094 20.609375 9.1875 20.59375 9.257812 C 20.582031 9.308594 20.566406 9.359375 20.542969 9.410156 C 20.527344 9.449219 20.507812 9.492188 20.484375 9.535156 C 20.457031 9.585938 20.425781 9.636719 20.386719 9.6875 C 20.359375 9.726562 20.328125 9.765625 20.292969 9.804688 C 20.246094 9.859375 20.199219 9.914062 20.140625 9.96875 C 20.109375 10.003906 20.070312 10.035156 20.03125 10.070312 C 19.964844 10.128906 19.890625 10.191406 19.8125 10.25 C 19.777344 10.273438 19.738281 10.300781 19.703125 10.324219 C 19.609375 10.390625 19.507812 10.457031 19.398438 10.519531 C 19.371094 10.535156 19.339844 10.554688 19.308594 10.570312 C 19.183594 10.640625 19.054688 10.710938 18.914062 10.777344 C 18.894531 10.789062 18.875 10.796875 18.855469 10.804688 C 18.699219 10.878906 18.535156 10.953125 18.359375 11.023438 C 18.351562 11.027344 18.347656 11.027344 18.339844 11.03125 C 17.382812 11.410156 16.164062 11.730469 14.738281 11.941406 C 14.730469 11.945312 14.71875 11.945312 14.710938 11.945312 C 14.4375 11.988281 14.152344 12.023438 13.863281 12.054688 C 13.816406 12.058594 13.761719 12.0625 13.714844 12.070312 C 13.460938 12.09375 13.203125 12.121094 12.941406 12.136719 C 12.816406 12.148438 12.691406 12.152344 12.566406 12.160156 C 12.367188 12.171875 12.171875 12.183594 11.96875 12.191406 C 11.632812 12.203125 11.289062 12.210938 10.941406 12.210938 C 10.59375 12.210938 10.253906 12.203125 9.917969 12.191406 C 9.714844 12.183594 9.519531 12.171875 9.324219 12.160156 C 9.195312 12.152344 9.070312 12.148438 8.945312 12.136719 C 8.683594 12.121094 8.425781 12.09375 8.175781 12.070312 C 8.125 12.0625 8.070312 12.058594 8.023438 12.054688 C 7.734375 12.023438 7.453125 11.988281 7.175781 11.945312 C 7.167969 11.945312 7.15625 11.945312 7.148438 11.941406 C 5.726562 11.734375 4.503906 11.414062 3.546875 11.03125 C 3.542969 11.027344 3.535156 11.027344 3.527344 11.023438 C 3.351562 10.953125 3.1875 10.882812 3.03125 10.808594 C 3.011719 10.796875 2.992188 10.789062 2.972656 10.777344 C 2.832031 10.710938 2.703125 10.640625 2.578125 10.570312 C 2.546875 10.554688 2.515625 10.535156 2.484375 10.519531 C 2.378906 10.457031 2.277344 10.390625 2.183594 10.328125 C 2.148438 10.300781 2.109375 10.273438 2.074219 10.25 C 1.996094 10.191406 1.921875 10.128906 1.855469 10.070312 C 1.816406 10.039062 1.777344 10.003906 1.742188 9.96875 C 1.6875 9.914062 1.636719 9.863281 1.59375 9.808594 C 1.558594 9.769531 1.527344 9.726562 1.496094 9.6875 C 1.460938 9.636719 1.429688 9.585938 1.402344 9.535156 C 1.378906 9.492188 1.359375 9.449219 1.339844 9.40625 C 1.320312 9.359375 1.304688 9.308594 1.292969 9.257812 C 1.277344 9.1875 1.257812 9.121094 1.257812 9.050781 L 1.257812 5.597656 C 1.308594 5.644531 1.367188 5.6875 1.421875 5.734375 C 1.453125 5.757812 1.480469 5.785156 1.511719 5.808594 Z M 10.941406 0.84375 C 16.648438 0.84375 20.625 2.507812 20.625 4 C 20.625 5.492188 16.648438 7.15625 10.941406 7.15625 C 5.234375 7.15625 1.257812 5.492188 1.257812 4 C 1.257812 2.507812 5.234375 0.84375 10.941406 0.84375 Z M 10.941406 0.84375"/>
</svg>

<svg xmlns="http://www.w3.org/2000/svg" width="32" height="32" viewBox="0 0 24 24">
    <path d="M23.453 22.582l-4.988-8.547a.932.932 0 0 0-.813-.469.927.927 0 0 0-.812.47l-4.988 8.546a.931.931 0 0 0-.004.945.934.934 0 0 0 .816.473h9.973a.94.94 0 1 0 .816-1.418zm-.726.527c-.016.02-.04.047-.086.047h-9.977c-.047 0-.074-.023-.086-.047a.103.103 0 0 1 0-.101l4.988-8.551a.094.094 0 0 1 .086-.047c.024 0 .063.008.086.047l4.989 8.55a.103.103 0 0 1 0 .102zm0 0"/>
    <path d="M17.688 16.422a.42.42 0 0 0-.422.422v3.367a.423.423 0 0 0 .844 0v-3.367a.42.42 0 0 0-.422-.422zm0 0M17.39 21.598a.413.413 0 0 0 0 .593.415.415 0 0 0 .297.13.43.43 0 0 0 .422-.423.443.443 0 0 0-.12-.3.432.432 0 0 0-.598 0zm0 0"/>
    <path d="M10.941 17.262c-.347 0-.687-.008-1.023-.02-.203-.008-.398-.02-.594-.031-.129-.008-.254-.012-.379-.02-.261-.02-.52-.043-.77-.07-.05-.004-.105-.008-.152-.016-.289-.03-.57-.066-.847-.105-.008-.004-.02-.004-.028-.004-1.421-.21-2.644-.531-3.601-.914a8.584 8.584 0 0 1-.516-.223c-.02-.007-.039-.02-.058-.027a9.11 9.11 0 0 1-.395-.207c-.031-.02-.062-.035-.094-.055a4.42 4.42 0 0 1-.3-.191c-.036-.027-.075-.05-.11-.078a3.575 3.575 0 0 1-.219-.176l-.113-.102a1.878 1.878 0 0 1-.148-.164c-.035-.039-.067-.078-.098-.117a1.653 1.653 0 0 1-.094-.156c-.023-.04-.043-.082-.062-.125a1.135 1.135 0 0 1-.047-.152c-.016-.067-.035-.137-.035-.204v-3.457c.008.008.02.016.027.02.098.09.195.172.309.258 1.59 1.195 4.758 2.125 9.347 2.125 4.579 0 7.743-.926 9.336-2.117.125-.09.239-.188.348-.282v-.004 3.668a.422.422 0 0 0 .844 0V3.79a.415.415 0 0 0-.063-.207C20.918 1.777 17.29 0 10.941 0 4.594 0 .965 1.777.481 3.582a.38.38 0 0 0-.063.207v15.578c0 .067.016.133.047.188.48 2.035 4.504 3.234 8.34 3.523h.035a.418.418 0 0 0 .418-.39.417.417 0 0 0-.387-.45c-4.68-.351-7.406-1.777-7.598-2.937-.003-.02-.007-.04-.015-.059v-3.539c.008.004.02.012.027.02.098.086.195.172.309.254 1.59 1.199 4.758 2.128 9.347 2.128a.423.423 0 0 0 0-.843zM1.511 5.809c.13.101.266.199.41.293.032.02.067.039.099.058.125.078.253.152.394.227l.152.082c.157.078.317.152.485.226.027.016.054.028.082.04a10.46 10.46 0 0 0 .812.3c.172.059.352.117.535.172.07.02.133.04.204.059.246.066.5.132.765.191l.114.023c.238.051.48.098.73.145.086.016.172.027.262.043.238.039.484.074.734.11l.191.023c.317.039.641.07.973.097.082.008.168.012.25.02.266.02.54.035.817.047.101.004.203.012.308.012a25.777 25.777 0 0 0 2.23 0c.102 0 .204-.008.305-.012.282-.012.551-.027.82-.047.083-.008.169-.012.25-.02.333-.027.657-.058.97-.097l.195-.024c.25-.035.496-.07.734-.109.086-.016.172-.027.258-.043.254-.047.496-.094.73-.145a15.829 15.829 0 0 0 .883-.215l.2-.058c.187-.055.367-.113.538-.172.063-.02.125-.039.188-.062.215-.075.426-.157.625-.239.027-.011.05-.027.078-.039.172-.074.332-.148.484-.226l.157-.082c.136-.074.27-.149.39-.227.035-.02.07-.039.098-.058a4.24 4.24 0 0 0 .41-.293c.035-.024.063-.051.094-.075l.16-.136V9.05c0 .07-.016.136-.031.207a1.172 1.172 0 0 1-.207.43c-.028.039-.059.078-.094.117-.047.054-.094.11-.152.164-.032.035-.07.066-.11.101a3.59 3.59 0 0 1-.218.18c-.036.023-.075.05-.11.074a3.725 3.725 0 0 1-.305.196c-.027.015-.058.035-.09.05-.124.07-.253.14-.394.207a8.553 8.553 0 0 1-.555.246c-.007.004-.011.004-.02.008-.956.38-2.175.7-3.6.91-.009.004-.02.004-.028.004-.274.043-.559.078-.848.11-.047.004-.101.008-.148.015-.254.024-.512.051-.774.067-.125.011-.25.015-.375.023-.199.012-.394.024-.597.031-.336.012-.68.02-1.028.02-.347 0-.687-.008-1.023-.02-.203-.007-.398-.02-.594-.03-.129-.009-.254-.013-.379-.024-.261-.016-.52-.043-.77-.067-.05-.008-.105-.011-.152-.015-.289-.032-.57-.067-.847-.11-.008 0-.02 0-.028-.004-1.421-.207-2.644-.527-3.601-.91-.004-.004-.012-.004-.02-.008-.175-.07-.34-.14-.496-.214-.02-.012-.039-.02-.058-.032a6.172 6.172 0 0 1-.395-.207c-.031-.015-.062-.035-.094-.05a6.732 6.732 0 0 1-.3-.192 3.59 3.59 0 0 1-.328-.258 1.4 1.4 0 0 1-.114-.101c-.054-.055-.105-.106-.148-.16-.035-.04-.067-.082-.098-.121a1.604 1.604 0 0 1-.094-.153.938.938 0 0 1-.11-.277c-.015-.07-.034-.137-.034-.207V5.598c.05.047.11.09.164.136.031.024.058.051.09.075zm9.43-4.965c5.707 0 9.684 1.664 9.684 3.156 0 1.492-3.977 3.156-9.684 3.156-5.707 0-9.683-1.664-9.683-3.156 0-1.492 3.976-3.156 9.683-3.156zm0 0"/>
</svg>
